X: 33346
T: Queen Of May, The
R: reel
M: 4/4
K: Edorian
Bcdf ecdB|AD D2 FA A2|Bcdf edBc|dBA=c BEGA|
Bcdf ecdB|AD D2 FAAd|Bcdf edBc|dBAd BE E2||
B2 eB fBeB|defa afed|B3d eB B2|dBA=c BEGA|
B2 eB fBeB|defa afeg|afba f3e|dBAd BE E2||

